X: 11811
T: Ellenroad Mill
R: three-two
M: 3/2
K: Gmajor
|:B2 G2 G2 D2 B2 G2|c2 A2 A2 e2 dcBA|B2 G2 G2 E2 c2 B2|A2 G2 F2 G2 A4:|
E2 F2 F2 G2 G2 c2|B2 G2 G2 D2 D2 B2|A2 F2 F2 D2 D2 A2|B2 G2 G2 D2 D4|
C2 E2 E2 G2 F4|G2 B2 d2 e2 dcBA|B2 G2 G2 E2 A4|G2 F2 E2 F2 G4||

